X:1
T: Lord Dreghorn's Quickstep
C:Robert MacIntosh
R:Jig
Q:180
K:D
M:6/8
L:1/16
fe|d6A2B2c2|d2A2G2 F2E2D2|d6B2c2d2|e2f2d2 c2B2A2|d6A2B2c2|d2A2G2 F2E2D2|G2F2G2 E2A2G2|F2D2D2 D2f2e2|
d6A2B2c2|d2A2G2 F2E2D2|d6B2c2d2|e2f2d2 c2B2A2|d6A2B2c2|d2A2G2 F2E2D2|G2F2G2 E2A2G2|F2D2D2 D4G2|
F2E2D2 A2F2D2|G2B2d2 d2B2G2|F2E2D2 A2G2F2|A,2C2E2 G2F2G2|F2E2D2 A2F2D2|G2B2d2 d2c2B2|A2c2e2 g2f2e2|f2d2d2 d4A2|
F2E2D2 A2F2D2|G2B2d2 d2B2G2|F2E2D2 A2F2D2|E2C2A,2 E2F2G2|F2E2D2 G2F2E2|A2G2F2 B2A2G2|A2a2g2 f2g2e2|f2d2d2 d4||
